X:1
T:Huntly Lodge [2]
T:Huntly Lodge [2]
T:Nathaniel Gow (1763-1831)
C:Nathaniel Gow (1763-1831)
L:1/8
Q:1/4=120
M:4/4
K:D
V:1 treble 
V:1
"^Slow" A | (F<A) d>F (G<B) E>G | (F<A) d>f (g/f/)(e/d/) (c/B/)(A/G/) | (F<A) d>F (G<B) E>g | %4
 fa (f/d/) (A/c/) d2 DA/G/ | (F<A) d>F G<B E>G | (F<A) d>f g>f (e/8d/4c/4B/4 A/4G/4F/4E/4) | %7
 (F<A) d>F (G<B) E>g | Tf g/a/ (f/d<)Ac/{c} d2 D || g | fd b>d ec a>c | dB g>f (e/d/)(c/B/) AB/G/ | %12
 F<A d>F (G<B) g>e | fa Ac{c} d2 Da/g/ | fd b>d ec a>c | dB{ef} g>f (e/d/)c/B/ A/(B/A/G/) | %16
 (F<A) d>F (G<B) Eg | fg/a/ (f/d/)A/c/ d2 D || %18

